!!!COM: Palestrina, Giovanni Perluigi da
!!!OPR: Missa Tu es Petrus (1887)
!!!OMD: Benedictus
!!!OTL: First Section
**kern	**kern	**kern	**kern
*Itenor	*Icalto	*Icant	*Icant
!Tenor	!Altus	!Cantus 2	!Cantus 1
*clefGv2	*clefG2	*clefG2	*clefG2
*k[]	*k[]	*k[]	*k[]
*G:mix	*G:mix	*G:mix	*G:mix
*M4/2	*M4/2	*M4/2	*M4/2
=1	=1	=1	=1
0r	0r	0r	1.dd
.	.	.	2dd
=2	=2	=2	=2
0r	0r	0r	1cc
.	.	.	2b
.	.	.	4g
.	.	.	4a
=3	=3	=3	=3
0r	1.g	1r	4b
.	.	.	4cc
.	.	.	2.dd
.	.	[1dd	.
.	.	.	4cc
.	2g	.	2b
=4	=4	=4	=4
0r	1f	2dd]	1a
.	.	2dd	.
.	2e	1cc	2g
.	4c	.	4e
.	4d	.	4f
=5	=5	=5	=5
0r	4e	2b	4g
.	4f	.	4a
.	1g	4g	4b
.	.	4a	4cc
.	.	4b	2.dd
.	.	4cc	.
.	2f#	[2dd	.
.	.	.	4cc
=6	=6	=6	=6
1r	1g	4dd]	4b
.	.	4cc	4a
.	.	2b	1g
2r	1d	1a	.
[2d	.	.	2f#
=7	=7	=7	=7
2d]	1G	1b	0g
2d	.	.	.
1c	2r	1ee	.
.	[2g	.	.
=8	=8	=8	=8
2B	2g]	2.dd	1r
4G	2g	.	.
4A	.	4cc	.
4B	2g	2b	[1dd
4c	.	.	.
[2d	4f	4a	.
.	4e	4g	.
=9	=9	=9	=9
4d]	4f	2a	2dd]
4c	4e	.	.
2B	2d	1g	2dd
1A	2e	.	1cc
.	2c	2f#	.
=10	=10	=10	=10
1G	1d	1g	2b
.	.	.	4g
.	.	.	4a
[1g	2r	1r	4b
.	.	.	4cc
.	[2G	.	[2dd
=11	=11	=11	=11
2g]	4G]	0r	4dd]
.	4A	.	4cc
2g	4B	.	2b
.	4c	.	.
1f	2d	.	1a
.	4A	.	.
.	4B	.	.
=12	=12	=12	=12
2e	4c	1r	2g
.	4d	.	.
4c	4e	.	2cc
4d	4f	.	.
4e	4g	[1gg	2.b
4f	4a	.	.
[2g	4b	.	.
.	4cc	.	4a
=13	=13	=13	=13
4g]	2dd	2gg]	2b
4f	.	.	.
2e	1cc	2gg	2cc
1d	.	1ff	1dd
.	2b	.	.
=14	=14	=14	=14
0c	1cc	2ee	0g
.	.	4cc	.
.	.	4dd	.
.	2r	4ee	.
.	.	4ff	.
.	[2cc	[2gg	.
=15	=15	=15	=15
1c	2cc]	4gg]	2r
.	.	4ff	.
.	2cc	2ee	1gg
4G	1b	1dd	.
4A	.	.	.
4B	.	.	2gg
4c	.	.	.
=16	=16	=16	=16
1d	2a	2dd	1ff
.	4f	4a	.
.	4g	4b	.
1A	4a	4cc	2ee
.	4b	4dd	.
.	[2cc	[2ee	4cc
.	.	.	4dd
=17	=17	=17	=17
0r	2cc]	2ee]	4ee
.	.	.	4ff
.	4b	4dd	2.gg
.	4a	4cc	.
.	2b	2dd	.
.	.	.	4ff
.	2cc	[2cc	2ee
=18	=18	=18	=18
1G	0g	2cc]	1dd
.	.	2b	.
[1c	.	2cc	[1ee
.	.	2g	.
=19	=19	=19	=19
2c]	1r	1.cc	0ee]
2A	.	.	.
1A	1c	.	.
.	.	2a	.
=20	=20	=20	=20
2.d	1f	2a	0r
.	.	1dd	.
4e	.	.	.
4f	2d	.	.
4g	.	.	.
[2a	2f	2cc	.
=21	=21	=21	=21
4a]	2g	2.b	0r
4g	.	.	.
1g	2e	.	.
.	.	8a	.
.	.	8g	.
.	1d	2a	.
2f	.	2dd	.
=22	=22	=22	=22
2.e	1r	1.gg	2r
.	.	.	2g
4d	.	.	.
1c	2r	.	[1cc
.	[2c	2ee	.
=23	=23	=23	=23
0r	2c]	2ee	2cc]
.	1f	2cc	2a
.	.	[1ff	2a
.	2d	.	[2dd
=24	=24	=24	=24
0r	2d	2ff]	4dd]
.	.	.	4cc
.	2.g	2dd	4b
.	.	.	4a
.	.	2dd	2b
.	4f	.	.
.	4e	[2gg	[2ee
.	4d	.	.
=25	=25	=25	=25
0r	2c	2gg]	2ee]
.	2d	2ff	2.dd
.	2A	1ee	.
.	.	.	4cc
.	[2a	.	[2cc
=26	=26	=26	=26
1r	2a]	1ee	2cc]
.	1g	.	2b
1d	.	[1dd	1a
.	2f#	.	.
=27	=27	=27	=27
1.g	2g	1dd]	2b
.	2b	.	2dd
.	2.b	1r	[1gg
2e	.	.	.
.	4b	.	.
=28	=28	=28	=28
2e	2b	0r	2gg]
1a	1cc	.	2ee
.	.	.	2ff
2g	2b	.	[2ee
=29	=29	=29	=29
2.f	1a	2r	2ee]
.	.	2dd	1dd
8e	.	.	.
8d	.	.	.
[1e	2r	[1gg	.
.	2g	.	4cc#
.	.	.	4b
=30	=30	=30	=30
2e]	2g	2gg]	2cc#
2e	2g	2ee	2cc#
2d	1a	2ff	2dd
4A	.	[2ee	2cc
4B	.	.	.
=31	=31	=31	=31
2c	2.g	2ee]	2cc
2G	.	2.dd	2b
.	4f	.	.
1A	2e	.	2a
.	.	4cc	.
.	2e	4cc	[2a
.	.	8dd	.
.	.	8ee	.
=32	=32	=32	=32
0r	4d	1ff	4a]
.	4e	.	4g
.	4f	.	4a
.	4g	.	4b
.	4a	2.ee	4cc
.	4b	.	4dd
.	[2cc	.	4ee
.	.	8dd	4ff
.	.	8cc	.
=33	=33	=33	=33
1G	2cc]	2dd	2gg
.	2b	2dd	2gg
[1c	2.cc	[1ee	2gg
.	.	.	2g
.	8b	.	.
.	8a	.	.
=34	=34	=34	=34
2c]	2g	1ee]	1.cc
2A	2a	.	.
1A	2f	2r	.
.	2e	2cc	2a
=35	=35	=35	=35
2.d	4d	1.ff	1a
.	4e	.	.
.	4f	.	.
4e	4g	.	.
4f	2a	.	2.dd
4d	.	.	.
[2g	2b	2dd	.
.	.	.	4cc
=36	=36	=36	=36
2g]	2g	0dd	2b
2f#	2a	.	2a
2.g	2b	.	1g
.	2b	.	.
4f	.	.	.
=37	=37	=37	=37
2.e	2cc	2.gg	2r
.	2g	.	2b
4d	.	4ff	.
[1c	2a	[1ee	2cc
.	[2cc	.	2g
=38	=38	=38	=38
1c]	4cc]	1ee]	2a
.	4b	.	.
.	1a	.	1cc
[1d	.	[1dd	.
.	[2g	.	2b
=39	=39	=39	=39
0d]	2g]	0dd]	1a
.	4f#	.	.
.	4e	.	.
.	1f#	.	1a
=40	=40	=40	=40
0G	0g	0dd	0b
*-	*-	*-	*-
!!!CDT: 1525/^1526/-1594/2/2
!!!OCY: Italia
!!!AGN: Mass (Parody)
!!!AST: renaissance, vocal
!!!ASW: Motet 1572 (Palestrina)
!!!PWK: Masses, Book 11
!!!RNB: Cadence finals: C,D
!!!YOR: Le Opere Complete, v. 28, p. 268
!!!YOO: Rome, Italy: Fratelli Scalera
!!!END: 1992//
!!!EED: John Miller
!!!YEC: Copyright 2000, John Miller
!!!YEN: United States of America
!!!YEM: Rights to all derivative electronic formats reserved.
!!!YEM: Refer to licensing agreement for further details.
!!!YEM: This file must be accompanied by the licensing agreement.
!!!YEM: A copy of the licensing agreement may be found at http://www.music-cog.ohio-state.edu/HumdrumDatabases/Palestrina/license.txt
!!!EMD: converted to Humdrum by Bret Aarden
